X: 12912
T: Fiddle Castro's Return To Galway
R: reel
M: 4/4
K: Aminor
|:a2ef edcd|cBBc BA^GA|dcBc BA^GA|e^def e=dcB|
a2ef edcd|cBBc BA^GA|dcBc BA^GA|edcB A4:|
|:FABc- cBAG-|GABc dcBA|FABc- cBAG-|GABc dcB2|
FABc- cBAG-|GABc dcBA|ec2e B2eA-|1 Aefe dcBA:|2 Aefe ge^ge||

